X: 17
T: General Action
%R: jig
B: "Twenty Four Favourite Dances for the Year 1779", Thomas Straight, ed. p.9 #1
F: http://www.vwml.org/browse/browse-collections-dance-tune-books/browse-straights1779
Z: 2014 John Chambers <jc:trillian.mit.edu>
N: The 2nd strain has 11 bars.
M: 6/8
L: 1/8
K: G
D |\
G2A B2c | d2g d2c |\
(Bd).G (GF).G | (A/B/c)B A2d |\
d^cd efg | faf e2g |\
fed Adc | d3- d2 :|\
d |\
afd afd |
cBA B2c |\
dgd dgd | cBA B2d |\
e2f g2f | e2f B2e |\
d3 g3 | dBG A2B |\
E2F G2A | B2g BcA |\
GDB, G,2 |]
%%begintext align
%% Hey contrary sides hey on your own sides
%% cast of one Cu: Lead thro', the bottom and
%% cast up one Cu: lead thro' the top and Cast
%% off
%%endtext

%%sep 1 1 500
%%sep 1 1 500
